src/assets/filled/SunFog.svg

<?xml version="1.0" encoding="UTF-8"?>
<svg width="24" height="24" viewBox="0 0 24 24" xmlns="http://www.w3.org/2000/svg">
 <path d="m18.48 12.25c0.28 0 0.52-0.24 0.5-0.52-0.27-3.63-3.29-6.48-6.98-6.48-3.69 0-6.71 2.85-6.98 6.48-0.02 0.28 0.22 0.52 0.5 0.52h12.96z"/>
 <path d="m22 13h-0.08c-0.55 0-1-0.45-1-1s0.45-1 1-1 1.04 0.45 1.04 1-0.41 1-0.96 1zm-19.92 0h-0.08c-0.55 0-1-0.45-1-1s0.45-1 1-1 1.04 0.45 1.04 1-0.41 1-0.96 1zm16.93-7.01c-0.26 0-0.51-0.1-0.71-0.29-0.39-0.39-0.39-1.02 0-1.41l0.13-0.13c0.39-0.39 1.02-0.39 1.41 0s0.39 1.02 0 1.41l-0.13 0.13c-0.19 0.19-0.44 0.29-0.7 0.29zm-14.02 0c-0.26 0-0.51-0.1-0.71-0.29l-0.13-0.14c-0.39-0.39-0.39-1.02 0-1.41s1.02-0.39 1.41 0l0.13 0.13c0.39 0.39 0.39 1.02 0 1.41-0.19 0.2-0.45 0.3-0.7 0.3zm7.01-2.95c-0.55 0-1-0.41-1-0.96v-0.08c0-0.55 0.45-1 1-1s1 0.45 1 1-0.45 1.04-1 1.04z"/>
 <path d="m20 15.75h-16c-0.41 0-0.75-0.34-0.75-0.75s0.34-0.75 0.75-0.75h16c0.41 0 0.75 0.34 0.75 0.75s-0.34 0.75-0.75 0.75z"/>
 <path d="m18 18.75h-12c-0.41 0-0.75-0.34-0.75-0.75s0.34-0.75 0.75-0.75h12c0.41 0 0.75 0.34 0.75 0.75s-0.34 0.75-0.75 0.75z"/>
 <path d="m15 21.75h-6c-0.41 0-0.75-0.34-0.75-0.75s0.34-0.75 0.75-0.75h6c0.41 0 0.75 0.34 0.75 0.75s-0.34 0.75-0.75 0.75z"/>
</svg>

<svg width="24" height="24" viewBox="0 0 24 24"  xmlns="http://www.w3.org/2000/svg">
<path d="M18.48 12.25C18.76 12.25 19 12.01 18.98 11.73C18.71 8.1 15.69 5.25 12 5.25C8.30997 5.25 5.28997 8.1 5.01997 11.73C4.99997 12.01 5.23997 12.25 5.51997 12.25H18.48Z" />
<path d="M22 13H21.92C21.37 13 20.92 12.55 20.92 12C20.92 11.45 21.37 11 21.92 11C22.47 11 22.96 11.45 22.96 12C22.96 12.55 22.55 13 22 13ZM2.08 13H2C1.45 13 1 12.55 1 12C1 11.45 1.45 11 2 11C2.55 11 3.04 11.45 3.04 12C3.04 12.55 2.63 13 2.08 13ZM19.01 5.99C18.75 5.99 18.5 5.89 18.3 5.7C17.91 5.31 17.91 4.68 18.3 4.29L18.43 4.16C18.82 3.77 19.45 3.77 19.84 4.16C20.23 4.55 20.23 5.18 19.84 5.57L19.71 5.7C19.52 5.89 19.27 5.99 19.01 5.99ZM4.99 5.99C4.73 5.99 4.48 5.89 4.28 5.7L4.15 5.56C3.76 5.17 3.76 4.54 4.15 4.15C4.54 3.76 5.17 3.76 5.56 4.15L5.69 4.28C6.08 4.67 6.08 5.3 5.69 5.69C5.5 5.89 5.24 5.99 4.99 5.99ZM12 3.04C11.45 3.04 11 2.63 11 2.08V2C11 1.45 11.45 1 12 1C12.55 1 13 1.45 13 2C13 2.55 12.55 3.04 12 3.04Z" />
<path d="M20 15.75H4C3.59 15.75 3.25 15.41 3.25 15C3.25 14.59 3.59 14.25 4 14.25H20C20.41 14.25 20.75 14.59 20.75 15C20.75 15.41 20.41 15.75 20 15.75Z" />
<path d="M18 18.75H6C5.59 18.75 5.25 18.41 5.25 18C5.25 17.59 5.59 17.25 6 17.25H18C18.41 17.25 18.75 17.59 18.75 18C18.75 18.41 18.41 18.75 18 18.75Z" />
<path d="M15 21.75H9C8.59 21.75 8.25 21.41 8.25 21C8.25 20.59 8.59 20.25 9 20.25H15C15.41 20.25 15.75 20.59 15.75 21C15.75 21.41 15.41 21.75 15 21.75Z" />
</svg>
